src/assets/images/error404/grave.svg

<svg width="232" height="500" viewBox="0 0 232 500" fill="none" xmlns="http://www.w3.org/2000/svg">
<path d="M142 184.084L142 169.084L202 169.084L202 130.084L142 61.9844L109 61.9844L109 130.084L97 130.084L97 169.084L109 169.084L109 184.084L142 184.084ZM142 97.9844L169 130.084L142 130.084L142 97.9844ZM95.5 250.012C95.5 291.562 113.2 311.512 149.65 311.512C185.95 311.512 203.5 291.562 203.5 250.012C203.5 208.312 186.1 188.512 149.65 188.512C113.05 188.512 95.5 208.312 95.5 250.012ZM128.5 250.012C128.5 231.562 138.4 227.512 149.65 227.512C160.75 227.512 170.5 231.412 170.5 250.012C170.5 268.612 160.6 272.512 149.65 272.512C138.55 272.512 128.5 268.462 128.5 250.012ZM142 438.088L142 423.088L202 423.088L202 384.088L142 315.988L109 315.988L109 384.088L97 384.088L97 423.088L109 423.088L109 438.088L142 438.088ZM142 351.988L169 384.088L142 384.088L142 351.988Z" fill="white"/>
<path d="M172.188 327.867H165.879V303.375C165.879 300.301 163.387 297.809 160.312 297.809H148.066V178.688C148.066 175.613 145.574 173.121 142.5 173.121H132.332C125.572 158.544 111.03 149 95 149C78.9702 149 64.4282 158.544 57.6683 173.121H47.5C44.4259 173.121 41.9336 175.613 41.9336 178.688V297.809H29.6875C26.6134 297.809 24.1211 300.301 24.1211 303.375V327.867H17.8125C14.7384 327.867 12.2461 330.359 12.2461 333.434C12.2461 336.508 14.7384 339 17.8125 339H172.188C175.262 339 177.754 336.508 177.754 333.434C177.754 330.359 175.262 327.867 172.188 327.867ZM53.0664 184.254H61.4049C63.7643 184.254 65.8677 182.766 66.6536 180.541C70.9646 168.334 82.3565 160.133 95 160.133C107.644 160.133 119.035 168.334 123.347 180.541C124.132 182.766 126.236 184.254 128.595 184.254H136.934V297.809H53.0664V184.254ZM35.2539 327.867V308.941H154.746V327.867H35.2539Z" fill="black"/>
</svg>

<svg width="232" height="500" fill="none" xmlns="http://www.w3.org/2000/svg"><path d="M142 184.084v-15h60v-39l-60-68.1h-33v68.1H97v39h12v15h33zm0-86.1 27 32.1h-27v-32.1zM95.5 250.012c0 41.55 17.7 61.5 54.15 61.5 36.3 0 53.85-19.95 53.85-61.5 0-41.7-17.4-61.5-53.85-61.5-36.6 0-54.15 19.8-54.15 61.5zm33 0c0-18.45 9.9-22.5 21.15-22.5 11.1 0 20.85 3.9 20.85 22.5s-9.9 22.5-20.85 22.5c-11.1 0-21.15-4.05-21.15-22.5zM142 438.088v-15h60v-39l-60-68.1h-33v68.1H97v39h12v15h33zm0-86.1 27 32.1h-27v-32.1z" fill="#fff"/><path d="M172.188 327.867h-6.309v-24.492a5.566 5.566 0 0 0-5.567-5.566h-12.246V178.688a5.566 5.566 0 0 0-5.566-5.567h-10.168C125.572 158.544 111.03 149 95 149s-30.572 9.544-37.332 24.121H47.5a5.567 5.567 0 0 0-5.566 5.567v119.121H29.688a5.566 5.566 0 0 0-5.567 5.566v24.492h-6.308a5.567 5.567 0 0 0 0 11.133h154.375a5.566 5.566 0 0 0 0-11.133zM53.066 184.254h8.339a5.567 5.567 0 0 0 5.249-3.713c4.31-12.207 15.703-20.408 28.346-20.408 12.644 0 24.035 8.201 28.347 20.408a5.566 5.566 0 0 0 5.248 3.713h8.339v113.555H53.066V184.254zM35.254 327.867v-18.926h119.492v18.926H35.254z" fill="#000"/></svg>
